svg/line_scan.svg

<svg xmlns="http://www.w3.org/2000/svg" viewBox="0 0 24 24"><path d="M17 22v-2h3v-3h2v3.5c0 .4-.2.7-.5 1s-.7.5-1 .5zM7 22H3.5c-.4 0-.7-.2-1-.5s-.5-.7-.5-1V17h2v3h3zM17 2h3.5c.4 0 .7.2 1 .5s.5.6.5 1V7h-2V4h-3zM7 2v2H4v3H2V3.5c0-.4.2-.7.5-1s.6-.5 1-.5zm12 9H5v2h14z"/></svg>

<svg xmlns="http://www.w3.org/2000/svg" id="mdi-line-scan" viewBox="0 0 24 24"><path d="M17 22V20H20V17H22V20.5C22 20.9 21.8 21.2 21.5 21.5C21.2 21.8 20.8 22 20.5 22H17M7 22H3.5C3.1 22 2.8 21.8 2.5 21.5C2.2 21.2 2 20.8 2 20.5V17H4V20H7V22M17 2H20.5C20.9 2 21.2 2.2 21.5 2.5C21.8 2.8 22 3.1 22 3.5V7H20V4H17V2M7 2V4H4V7H2V3.5C2 3.1 2.2 2.8 2.5 2.5S3.1 2 3.5 2H7M19 11H5V13H19V11Z" /></svg>
